X:2871
L:1/8
M:4/4
K:A
 (f | ea)ec A/A/A a2 | B=gdg BGGf | eaec A/A/A a2 | faea cAA :| e | cAeA cAac | B=gdg BGGB | 
 cAeA cAae | faea cAAB | cAeA cAac | B=gdg BGGB | cAae faea | ceBe cAA ||

